X: 3414
Q: "Tempo di marcia."
M: C
L: 1/8
K: G
uG>uA |\
vB2uB>uB B2G>B | d2d>d d2e2 | dBcA BdGB | A2A>B A2G>A |\
|: (G/A/B/c/) |\
d2d>d dBAB | G2G>G G2d2 | gfed BdGB | A2A>B A2G>A |\


